!!!COM: Palestrina, Giovanni Perluigi da
!!!OPR: Missa Ascendo ad Patrem
!!!OMD: Credo
!!!OTL: First Section
**kern	**kern	**kern	**kern	**kern
*Ibass	*Itenor	*Itenor	*Icalto	*Icant
!Bassus	!Tenor 2	!Tenor 1	!Altus	!Cantus
*clefF4	*clefGv2	*clefGv2	*clefG2	*clefG2
*k[]	*k[]	*k[]	*k[]	*k[]
*C:ion	*C:ion	*C:ion	*C:ion	*C:ion
*M4/2	*M4/2	*M4/2	*M4/2	*M4/2
=1	=1	=1	=1	=1
0r	0d	0G	0g	0b
=2	=2	=2	=2	=2
0r	2.e	1.c	2.g	1.cc
.	4f	.	4f	.
.	2g	.	2e	.
.	2a	2A	2f	2cc
=3	=3	=3	=3	=3
0r	2g	2B	2d	2dd
.	2g	2c	2c	2ee
.	1c	1A	2e	1cc
.	.	.	2f#	.
=4	=4	=4	=4	=4
0r	2d	2G	0g	0b
.	2G	2d	.	.
.	2G	2d	.	.
.	2G	2d	.	.
=5	=5	=5	=5	=5
1C	[0c	0e	2r	1r
.	.	.	2g	.
2C	.	.	2g	2r
2C	.	.	2g	2cc
=6	=6	=6	=6	=6
1F	1c]	2f	1a	2cc
.	.	4F	.	2cc
.	.	4G	.	.
2D	2d	4A	2a	2ff
.	.	4B	.	.
2E	2G	4c	2g	2ee
.	.	4B	.	.
=7	=7	=7	=7	=7
2.F	2c	4A	2.a	1cc
.	.	4F	.	.
.	1A	1c	.	.
4E	.	.	4g	.
1D	.	.	1f	1dd
.	4G	2B	.	.
.	4F	.	.	.
=8	=8	=8	=8	=8
1C	2G	0c	1e	1ee
.	2.g	.	.	.
2r	.	.	2r	[1ee
.	4f	.	.	.
[2c	4e	.	[2g	.
.	4d	.	.	.
=9	=9	=9	=9	=9
2c]	2c	0r	2g]	2ee]
2B	2d	.	2g	2dd
2A	2e	.	2a	2cc
2A	2c	.	2f	2cc
=10	=10	=10	=10	=10
0G	4d	1r	1g	2b
.	4c	.	.	.
.	4B	.	.	2.dd
.	4A	.	.	.
.	1B	[1g	2.dd	.
.	.	.	.	4cc
.	.	.	.	4b
.	.	.	4cc	4a
=11	=11	=11	=11	=11
0r	0r	2g]	2b	2g
.	.	2f	2.a	2a
.	.	1e	.	2b
.	.	.	4g	.
.	.	.	[2g	4a
.	.	.	.	4g
=12	=12	=12	=12	=12
1r	2r	2.d	2g]	1a
.	2.d	.	2f#	.
.	.	4c	.	.
[1G	.	4B	2g	1dd
.	4c	4A	.	.
.	4B	2G	[2b	.
.	4A	.	.	.
=13	=13	=13	=13	=13
2G]	2G	1d	2b]	2dd
2F	2A	.	2a	1dd
2E	2B	2e	2g	.
2E	2G	2g	2g	2cc
=14	=14	=14	=14	=14
2D	2.d	2g	2.a	2.dd
2D	.	2f#	.	.
.	4d	.	4a	4dd
1G	1d	2g	1b	1dd
.	.	[2d	.	.
=15	=15	=15	=15	=15
2.G	2.B	4d]	0r	0r
.	.	4d	.	.
.	.	2d	.	.
4G	4B	.	.	.
2G	2B	2e	.	.
2A	2c	[2f	.	.
=16	=16	=16	=16	=16
2.G	2.B	4f]	1r	0r
.	.	4e	.	.
.	.	1e	.	.
8F	8A	.	.	.
8E	8G	.	.	.
2F	2A	.	2r	.
2F	2A	2d	[2a	.
=17	=17	=17	=17	=17
1E	1B	1e	2a]	0b
.	.	.	4g#	.
.	.	.	4f#	.
1E	1e	2r	1g#	.
.	.	2e	.	.
=18	=18	=18	=18	=18
0D	1.A	0f#	0a	0dd
.	[2d	.	.	.
=19	=19	=19	=19	=19
0G	4d]	0g	0d	2.b
.	4c	.	.	.
.	4B	.	.	.
.	4A	.	.	4cc
.	1B	.	.	1dd
=20	=20	=20	=20	=20
2C	1c	2e	2g	2ee
2.c	.	2.e	2.g	2.cc
.	1r	.	.	.
4c	.	4e	4g	4cc
2A	.	2e	2a	2cc
=21	=21	=21	=21	=21
1G	0r	1g	1b-	2dd
.	.	.	.	2ee
1F	.	1c	2a	[1ff
.	.	.	[2a	.
=22	=22	=22	=22	=22
2D	0r	2f	2a]	2ff]
2E	.	2g	2g	2ee
1F	.	1a	2f	4dd
.	.	.	.	4cc
.	.	.	2e	[2cc
=23	=23	=23	=23	=23
2.G	1r	2.g	1d	2cc]
.	.	.	.	2b
4G	.	4g	.	.
[1C	2r	2e	1c	2cc
.	[2c	[2g	.	[2ee
=24	=24	=24	=24	=24
1C]	2c]	2g]	2.cc	2ee]
.	2c	2g	.	2ee
.	.	.	4cc	.
1r	2A	2a	2cc	2ff
.	2c	2g	2cc	2ee
=25	=25	=25	=25	=25
0r	1G	1g	1b	1dd
.	2.A	2e	2a	2cc
.	.	[2f	[2a	[2cc
.	4B	.	.	.
=26	=26	=26	=26	=26
0r	1c	2f]	2a]	2cc]
.	.	2e	2g	2cc
.	1r	2f	2a	2dd
.	.	2g	2b	2dd
=27	=27	=27	=27	=27
0r	2r	1c	2.cc	2.ee
.	1c	.	.	.
.	.	.	8b	4dd
.	.	.	8a	.
.	.	2r	4g	4ee
.	.	.	4a	4ff
.	2B	2d	4b	[2gg
.	.	.	4g	.
=28	=28	=28	=28	=28
0r	2c	2e	1a	2gg]
.	2d	2f	.	2ff
.	1G	2.g	2.b	4ee
.	.	.	.	4dd
.	.	.	.	[2dd
.	.	4f	4b	.
=29	=29	=29	=29	=29
1r	2A	2e	1a	2dd]
.	2A	2e	.	2cc#
2r	2d	2f	2r	1dd
2G	2B	2d	2g	.
=30	=30	=30	=30	=30
2F#	2A	2d	2a	0r
2G	2B	2d	2g	.
1E	1G	1c	1g	.
=31	=31	=31	=31	=31
2D	2A	1d	2f	1r
2d	2f	.	2a	.
2c#	2e	1r	2a	2r
2d	2f	.	2a	2dd
=32	=32	=32	=32	=32
2B-	2d	0r	2g	2dd
2B-	2d	.	2g	2dd
1A	1e	.	2.a	2cc#
.	.	.	.	2cc#
.	.	.	4g	.
=33	=33	=33	=33	=33
2r	0r	1.d	2f#	2dd
1G	.	.	1g	1b
2D	.	2d	2f#	2a
=34	=34	=34	=34	=34
1G	1r	1d	1g	1b
2C	2r	[1g	1e	2cc
2c	2e	.	.	2cc
=35	=35	=35	=35	=35
2G	2d	1g]	1r	2b
2c	2e	.	.	2cc
4F	[1c	2r	2r	4a
4G	.	.	.	4b
4A	.	2f	2a	4cc
4B	.	.	.	4dd
=36	=36	=36	=36	=36
2c	1c]	2e	2g	4ee
.	.	.	.	4dd
2F	.	2f	2a	1cc
1G	[1g	1d	4g	.
.	.	.	8f	.
.	.	.	8e	.
.	.	.	2d	2b
=37	=37	=37	=37	=37
1r	1g]	1c	1e	0cc
2.F	2.f	2.c	2.a	.
4F	4f	4c	4a	.
=38	=38	=38	=38	=38
2A	2e	2c	2a	0r
2B-	4d	2d	2f	.
.	2f	.	.	.
1G	.	1B-	1g	.
.	8e	.	.	.
.	8d	.	.	.
.	2e	.	.	.
=39	=39	=39	=39	=39
2F	0f	2c	2a	2r
1F	.	2c	1a	1cc
.	.	2c	.	.
2F	.	[2f	2a	2cc
=40	=40	=40	=40	=40
2.B-	0r	4f]	2b-	2.dd
.	.	4e	.	.
.	.	2d	2f	.
4A	.	.	.	4cc
2G	.	2e	2g	2b-
2F	.	[2f	2c	[2a
=41	=41	=41	=41	=41
1B-	0r	4f]	1d	2a]
.	.	4e	.	.
.	.	1d	.	2g
1A	.	.	1e	1a
.	.	2c#	.	.
=42	=42	=42	=42	=42
1D	1f#	2r	1a	2r
.	.	2d	.	2dd
2D	2f#	2d	2a	2dd
[2G	[2g	[2B	[2d	[2dd
=43	=43	=43	=43	=43
2G]	2g]	2B]	2d]	2dd]
2C	2e	2c	2g	2ee
2C	2e	1c	2g	2ee
[2F	[2f	.	[2a	[2cc
=44	=44	=44	=44	=44
2F]	2f]	2.A	2a]	2cc]
2D	2f	.	2f	2dd
.	.	4A	.	.
1C	[1e	1c	1g	[1ee
=45	=45	=45	=45	=45
2r	1e]	2r	2r	1ee]
2c	.	2c	2g	.
2B	1r	2d	2g	1r
2A	.	2f	2a	.
=46	=46	=46	=46	=46
1c	0r	1e	2g	0r
.	.	.	1g	.
2B	.	2d	.	.
2A	.	2c	2f#	.
=47	=47	=47	=47	=47
1G	2r	1d	2g	2r
.	2g	.	2b	2dd
1r	2f	1r	2a	2dd
.	2e	.	2cc	2ee
=48	=48	=48	=48	=48
0r	1g	1r	1b	1dd
.	2f	2r	2a	2dd
.	2e	[2g	2g	2cc
=49	=49	=49	=49	=49
0r	1d	2g]	2.a	1dd
.	.	2f	.	.
.	.	.	4b	.
.	1c	2e	2.cc	2.ee
.	.	2g	.	.
.	.	.	4b	8dd
.	.	.	.	8cc
=50	=50	=50	=50	=50
1r	0r	2f	2a	4dd
.	.	.	.	4cc
.	.	2e	2g	1cc
1G	.	1d	2r	.
.	.	.	[2g	2b
=51	=51	=51	=51	=51
0C	1g	2c	2g]	1cc
.	.	1g	1c	.
.	2.c	.	.	1gg
.	.	[2c	[2e	.
.	4d	.	.	.
=52	=52	=52	=52	=52
1C	2e	2c]	4e]	1cc
.	.	.	4f	.
.	1c	2e	1g	.
1G	.	1d	.	2dd
.	2B	.	2g	2dd
=53	=53	=53	=53	=53
0C	4c	1c	0g	2.ee
.	4d	.	.	.
.	4e	.	.	.
.	4f	.	.	4dd
.	1e	[1G	.	1cc
=54	=54	=54	=54	=54
1G	1d	1G]	1g	1b
1r	1r	1r	1r	1r
=55	=55	=55	=55	=55
1G	0r	1d	1g	1b
[1c	.	[1e	[1g	[1cc
=56	=56	=56	=56	=56
2c]	0r	2e]	2g]	2cc]
2B	.	2d	2g	2dd
2A	.	2c	2cc	2ee
2A	.	2c	2cc	2ff#
=57	=57	=57	=57	=57
1G	0r	1d	1b	1gg
1F	.	1f	1a	1cc
=58	=58	=58	=58	=58
1C	0r	1e	1g	1cc
2G	.	2d	2g	2b
2A	.	2c	[2e	2cc
=59	=59	=59	=59	=59
1F	0r	2c	2e]	1a
.	.	4B	2d	.
.	.	4A	.	.
[1E	.	1B	1e	2g#
.	.	.	.	[2b
=60	=60	=60	=60	=60
1E]	2r	1e	1g#	2b]
.	2e	.	.	2b
1r	2e	1r	2g#	1cc
.	[2f	.	[2a	.
=61	=61	=61	=61	=61
0r	2f]	1r	2a]	2dd
.	2g	.	2b	1ee
.	2a	2r	2cc	.
.	2f	2a	2a	2dd
=62	=62	=62	=62	=62
1r	1e	2a	1b	1ee
.	.	2g#	.	.
1A	1c	2.a	1e	1ee
.	.	8g	.	.
.	.	8f	.	.
=63	=63	=63	=63	=63
2A	2c	0e	2a	2ee
2G#	2B	.	2b	2ee
1A	[1A	.	1cc#	1ee
=64	=64	=64	=64	=64
1D	1A]	0d	2.dd	1ff#
.	.	.	4cc	.
1G	1B	.	4b	2.gg
.	.	.	4a	.
.	.	.	[2g	.
.	.	.	.	4ff
=65	=65	=65	=65	=65
0C	0c	2.g	4g]	2.ee
.	.	.	4f	.
.	.	.	4e	.
.	.	4f	4f	4dd
.	.	1e	1g	1cc
=66	=66	=66	=66	=66
0G	0B	0d	0g	0dd
*-	*-	*-	*-	*-
!!!CDT: 1525/^1526/-1594/2/2
!!!OCY: Italia
!!!AGN: Mass (Parody)
!!!AST: renaissance, vocal
!!!ASW: Motet 1572 (Palestrina)
!!!PWK: Masses, Book 12
!!!RNB: Cadence finals: G,D
!!!YOR: Le Opere Complete, v. 29, p. 54
!!!YOO: Rome, Italy: Fratelli Scalera
!!!END: 1992//
!!!EED: John Miller
!!!YEC: Copyright 2000, John Miller
!!!YEN: United States of America
!!!YEM: Rights to all derivative electronic formats reserved.
!!!YEM: Refer to licensing agreement for further details.
!!!YEM: This file must be accompanied by the licensing agreement.
!!!YEM: A copy of the licensing agreement may be found at http://www.music-cog.ohio-state.edu/HumdrumDatabases/Palestrina/license.txt
!!!EMD: converted to Humdrum by Bret Aarden
